packages/core/src/svgs/goz.svg

<svg width="24" height="24" viewBox="0 0 24 24" fill="none" xmlns="http://www.w3.org/2000/svg">
<g clip-path="url(#clip0_31_11008)">
<path d="M0 0H24V24H0V0Z" fill="#F0F3FA"/>
<path d="M12.0001 19.2858C16.0239 19.2858 19.2858 16.0239 19.2858 12.0001C19.2858 7.97628 16.0239 4.71436 12.0001 4.71436C7.97628 4.71436 4.71436 7.97628 4.71436 12.0001C4.71436 16.0239 7.97628 19.2858 12.0001 19.2858Z" fill="#FFED00"/>
<path fill-rule="evenodd" clip-rule="evenodd" d="M12 18.4288C13.7049 18.4288 15.3401 17.7515 16.5457 16.5459C17.7512 15.3403 18.4285 13.7052 18.4285 12.0002C18.4285 10.2952 17.7512 8.66011 16.5457 7.45452C15.3401 6.24893 13.7049 5.57164 12 5.57164C10.295 5.57164 8.65987 6.24893 7.45428 7.45452C6.24869 8.66011 5.57139 10.2952 5.57139 12.0002C5.57139 13.7052 6.24869 15.3403 7.45428 16.5459C8.65987 17.7515 10.295 18.4288 12 18.4288ZM12 18.8574C13.8186 18.8574 15.5627 18.1349 16.8487 16.8489C18.1347 15.563 18.8571 13.8188 18.8571 12.0002C18.8571 10.1816 18.1347 8.43744 16.8487 7.15148C15.5627 5.86551 13.8186 5.14307 12 5.14307C10.1813 5.14307 8.4372 5.86551 7.15123 7.15148C5.86527 8.43744 5.14282 10.1816 5.14282 12.0002C5.14282 13.8188 5.86527 15.563 7.15123 16.8489C8.4372 18.1349 10.1813 18.8574 12 18.8574Z" fill="#E42313"/>
<path fill-rule="evenodd" clip-rule="evenodd" d="M16.1272 9.32129C16.4762 9.3462 16.8156 9.44713 17.1215 9.617L17.1429 9.63415V11.4684L17.0615 11.4127C16.7284 11.2312 16.3564 11.1326 15.9772 11.1256C15.9043 11.1256 15.8529 11.0827 15.8486 11.0141V10.5599C15.5758 10.449 15.2857 10.3866 14.9915 10.3756V12.8741C14.9915 14.7899 13.1315 16.0927 12.0257 16.7013L12 16.7141L11.9743 16.7013C10.8686 16.0927 9.00861 14.7899 9.00861 12.8741V10.3756C8.74718 10.3884 8.36575 10.4527 8.15146 10.5599V11.0141C8.14718 11.0827 8.09575 11.1299 8.02289 11.1299C7.60289 11.1299 7.10146 11.297 6.93861 11.4127L6.85718 11.4684V9.63415L6.87861 9.617C7.18417 9.44563 7.52354 9.34324 7.87289 9.317V9.00843C7.93718 8.69557 8.64432 8.57986 9.00861 8.57129H14.9915C15.3557 8.57986 16.0629 8.69557 16.1272 9.00415V9.32129ZM16.0243 9.02129C15.9815 8.81986 15.4029 8.68272 14.9915 8.67415V10.277C15.2615 10.2856 15.8057 10.3627 16.0243 10.5513V9.02129ZM6.96003 11.2799V9.68558C7.24344 9.53741 7.55402 9.44846 7.87289 9.42415V10.7313C7.87289 10.8427 7.92861 10.8941 7.97575 10.937L7.99289 10.9541C8.01861 10.9799 8.03575 11.0099 8.04003 11.0227H8.01432C7.65004 11.027 7.20003 11.1513 6.96003 11.2799ZM9.00861 8.67415V10.277C8.73861 10.2856 8.19861 10.3627 7.97575 10.5513V9.02129C8.01861 8.81986 8.60146 8.68272 9.00861 8.67415ZM16.1272 9.42415C16.5257 9.45843 16.8986 9.59558 17.0443 9.68558V11.2799C16.7057 11.1168 16.3358 11.0291 15.96 11.0227C15.9643 11.0099 15.9815 10.9799 16.0072 10.9541L16.0286 10.937C16.0715 10.8941 16.1272 10.8427 16.1272 10.7313V9.42415ZM8.04003 10.8599C7.99718 10.8213 7.97146 10.7956 7.97575 10.7313C7.97575 10.7056 7.99289 10.667 8.04432 10.6241V10.8641V10.8599H8.04003ZM16.02 10.7056L16.0286 10.7313C16.0286 10.7956 15.9986 10.8213 15.96 10.8599L15.9557 10.8641V10.6241C15.99 10.6541 16.0115 10.6841 16.02 10.7056Z" fill="#E42313"/>
<path d="M14.8885 8.67421V12.8742C14.8885 14.7214 13.0885 15.9942 11.9999 16.5985C10.9113 15.9985 9.11133 14.7214 9.11133 12.8699V8.66992H14.8885V8.67421Z" fill="#FFED00"/>
<path d="M7.39726 10.7787V9.97295H7.2644V9.84438H7.53869V10.7787H7.39726ZM8.58869 9.67295C8.53756 9.69707 8.48007 9.70426 8.42458 9.69347C8.36909 9.68268 8.31848 9.65448 8.28012 9.61295C8.2249 9.5553 8.19418 9.47849 8.1944 9.39866C8.1944 9.30009 8.22869 9.21866 8.28869 9.16295C8.34869 9.10295 8.42583 9.07295 8.5244 9.07295C8.6144 9.07295 8.68726 9.10295 8.74298 9.15866C8.79869 9.21866 8.82869 9.29152 8.82869 9.38581C8.82869 9.48866 8.77726 9.60866 8.71298 9.69866L8.45155 10.0844L8.33583 10.0287L8.58869 9.67295ZM8.68298 9.38581C8.68645 9.33633 8.67115 9.28736 8.64012 9.24866C8.62528 9.2316 8.60679 9.21812 8.58601 9.20921C8.56523 9.2003 8.5427 9.19621 8.52012 9.19723C8.49629 9.19639 8.47255 9.20053 8.45041 9.20939C8.42827 9.21825 8.40822 9.23162 8.39155 9.24866C8.35859 9.2865 8.34168 9.3357 8.3444 9.38581C8.3444 9.44581 8.35726 9.49295 8.38726 9.52724C8.42155 9.55724 8.4644 9.57438 8.51583 9.57438C8.56726 9.57438 8.60583 9.55723 8.64012 9.52295C8.67012 9.48866 8.68298 9.44152 8.68298 9.38581ZM15.793 9.90438V10.0287H15.1715L15.5101 9.60438C15.553 9.55295 15.583 9.50581 15.6001 9.46724C15.6184 9.43284 15.6287 9.39474 15.6301 9.35581C15.6301 9.31295 15.6173 9.27009 15.5873 9.24438C15.5729 9.23109 15.556 9.22082 15.5376 9.21419C15.5192 9.20757 15.4997 9.20471 15.4801 9.20581C15.4373 9.20581 15.4073 9.21866 15.3773 9.24866C15.3513 9.27684 15.3362 9.31326 15.3344 9.35152H15.193C15.193 9.26581 15.2187 9.19724 15.2744 9.15009C15.3301 9.09866 15.403 9.07295 15.493 9.07295C15.5787 9.07295 15.6473 9.09438 15.6987 9.14152C15.7501 9.18866 15.7758 9.25295 15.7758 9.33438C15.7758 9.39438 15.763 9.45009 15.733 9.50581C15.6558 9.65152 15.5444 9.78009 15.4415 9.90438H15.793ZM16.3287 10.5472C16.3715 10.6244 16.4358 10.6672 16.5215 10.6672C16.6415 10.6672 16.7187 10.5815 16.7187 10.4529C16.7187 10.3244 16.633 10.2472 16.513 10.2472C16.4401 10.2472 16.3844 10.2772 16.3373 10.3329L16.2815 10.3158L16.3973 9.83581H16.8258V9.96438H16.5087L16.4573 10.1615C16.4939 10.1462 16.5333 10.1389 16.573 10.1401C16.6587 10.1401 16.7273 10.1701 16.7787 10.2258C16.8344 10.2815 16.8644 10.3544 16.8644 10.4487C16.8666 10.496 16.859 10.5433 16.8421 10.5876C16.8251 10.6318 16.7991 10.6721 16.7658 10.7058C16.7323 10.7378 16.6925 10.7627 16.6491 10.7789C16.6056 10.7951 16.5593 10.8023 16.513 10.8001C16.4568 10.8015 16.401 10.7898 16.3501 10.7658C16.3032 10.7403 16.2635 10.7034 16.2344 10.6587L16.3287 10.5472ZM14.7387 12.8744H12.0515V16.4572L12.1287 16.4144C13.8773 15.3687 14.743 14.2287 14.7858 12.9258L14.7901 12.8744H14.7387ZM9.2144 12.8744H11.9487V16.4572L11.8715 16.4101C10.123 15.3687 9.25726 14.2287 9.2144 12.9258V12.8744ZM11.8501 16.2772V12.9772H9.32155C9.37726 14.1987 10.2087 15.2829 11.8501 16.2772ZM9.2144 9.93866V8.77295H14.7858V9.93866H9.2144Z" fill="#E42313"/>
<path d="M10.1099 9.46714H9.78847V9.59143H9.92561V9.72429L9.86132 9.73286H9.79275C9.72418 9.73286 9.67704 9.72 9.65561 9.69C9.63847 9.67286 9.61275 9.62571 9.61275 9.51C9.61275 9.38571 9.63418 9.33857 9.65132 9.32143C9.67275 9.29571 9.71561 9.27857 9.7799 9.27857C9.82704 9.27857 9.86561 9.29143 9.88704 9.30857C9.90847 9.32143 9.91704 9.34286 9.91704 9.36857V9.39429H10.1056V9.36429C10.1055 9.33351 10.097 9.30334 10.0812 9.27694C10.0653 9.25055 10.0427 9.22891 10.0156 9.21429C9.94438 9.17696 9.86452 9.15921 9.78418 9.16286C9.7199 9.16286 9.66418 9.17143 9.61704 9.18429C9.57408 9.19437 9.53432 9.21499 9.50132 9.24429C9.47488 9.27202 9.45573 9.30589 9.44561 9.34286C9.43275 9.38143 9.42847 9.42857 9.42847 9.49714C9.42847 9.58286 9.43704 9.64714 9.4499 9.69C9.46704 9.73286 9.49275 9.77571 9.53132 9.79714C9.56393 9.81823 9.60032 9.83278 9.63847 9.84C9.68132 9.85286 9.73275 9.85714 9.79275 9.85714L9.92132 9.84857L10.1099 9.82714V9.46714ZM10.8513 9.22286C10.8187 9.20177 10.7823 9.18722 10.7442 9.18C10.6979 9.16869 10.6504 9.16293 10.6028 9.16286C10.5385 9.16286 10.4785 9.17143 10.4313 9.18429C10.3874 9.19647 10.3474 9.22014 10.3156 9.25286C10.2932 9.2799 10.2784 9.31246 10.2728 9.34714C10.263 9.40086 10.2587 9.45542 10.2599 9.51C10.2599 9.59571 10.2642 9.66 10.2813 9.69857C10.2942 9.74143 10.3156 9.77143 10.3542 9.79714C10.3799 9.81429 10.4185 9.83143 10.4613 9.84C10.5042 9.85286 10.547 9.85714 10.6028 9.85714C10.667 9.85714 10.7228 9.84857 10.7699 9.83571C10.8213 9.81857 10.8556 9.79286 10.8856 9.76714C10.9077 9.73988 10.9225 9.70743 10.9285 9.67286C10.9413 9.63857 10.9456 9.58714 10.9456 9.51857C10.9456 9.42857 10.937 9.36429 10.9242 9.32571C10.9118 9.28438 10.8862 9.24825 10.8513 9.22286ZM10.5985 9.28714C10.6628 9.28714 10.7013 9.3 10.727 9.32143C10.7399 9.33857 10.757 9.38571 10.757 9.51C10.757 9.63 10.7399 9.68143 10.7228 9.69857C10.7013 9.72 10.6585 9.73286 10.5985 9.73286C10.5693 9.73401 10.5403 9.72965 10.5128 9.72C10.4957 9.71249 10.481 9.70067 10.4699 9.68571C10.4602 9.67017 10.4543 9.65254 10.4528 9.63429C10.4485 9.62143 10.4442 9.58286 10.4442 9.51C10.4442 9.42429 10.4485 9.38143 10.4528 9.36857C10.4584 9.35048 10.4688 9.33421 10.4828 9.32143C10.4948 9.3096 10.5095 9.30079 10.5256 9.29571L10.5985 9.28714ZM10.8428 9H10.6799V9.14143H10.8385V9H10.8428ZM10.5299 9H10.367V9.14143H10.5299V9ZM11.0613 9.17143V9.30429H11.447L11.0613 9.72429V9.85714H11.6742V9.71143H11.2885L11.6742 9.3V9.17143H11.057H11.0613ZM11.7856 9.17143V9.3H12.0128V9.85714H12.197V9.3H12.4285V9.17143H11.7856ZM12.557 9.17143V9.85714H13.1056V9.71571H12.7413V9.56143H13.097V9.44143H12.7413V9.30429H13.1056V9.17571H12.557V9.17143ZM13.817 9.21429C13.7742 9.18857 13.697 9.17143 13.5813 9.17143H13.2856V9.85714H13.4699V9.57857H13.6113C13.7056 9.57857 13.7742 9.56143 13.8213 9.53143C13.8685 9.49714 13.8942 9.44571 13.8942 9.37714C13.8942 9.30429 13.8685 9.24429 13.817 9.21429ZM13.4742 9.3H13.5813C13.6456 9.3 13.6756 9.31286 13.6885 9.32143C13.7013 9.33 13.7099 9.35143 13.7099 9.36857C13.7099 9.39429 13.7013 9.41143 13.6842 9.42429C13.667 9.43286 13.6542 9.43714 13.577 9.44143H13.4699V9.30429L13.4742 9.3ZM14.5713 9.30429V9.17571H14.0228V9.85714H14.5713V9.71571H14.207V9.56143H14.5628V9.44143H14.207V9.30429H14.5713Z" fill="#FFED00"/>
<path fill-rule="evenodd" clip-rule="evenodd" d="M14.7858 10.0415H12.0515V12.7715H14.7901V10.0415H14.7858ZM14.6872 10.1401H12.1544V12.6686H14.6872V10.1401Z" fill="#E42313"/>
<path d="M9.21436 12.7715H9.81864V12.1715H9.21436V12.7758V12.7715ZM9.9215 12.0644H10.5301V11.4558H9.9215V12.0644ZM9.81864 11.3572H9.21436V10.7486H9.81864V11.3572ZM10.6286 10.7486H11.2415V11.3572H10.6286V10.7486ZM9.9215 10.6458H10.5301V10.0415H9.9215V10.6458ZM11.3401 10.6458H11.9486V10.0415H11.3401V10.6458ZM9.21436 10.6458H9.81864V10.0415H9.21436V10.6458ZM9.72007 10.5472H9.31293V10.1401H9.72007V10.5472Z" fill="#E42313"/>
<path fill-rule="evenodd" clip-rule="evenodd" d="M11.2415 10.6458H10.6286V10.0415H11.2372V10.6458H11.2415ZM11.1386 10.5472H10.7315V10.1401H11.1429V10.5472H11.1386ZM11.9486 10.7486H11.3401V11.3572H11.9486V10.7486ZM11.8501 10.8515H11.4429V11.2544H11.8501V10.8515ZM9.21436 12.0644H9.81864V11.4558H9.21436V12.0644ZM9.72007 11.5586H9.31293V11.9615H9.72007V11.5586Z" fill="#E42313"/>
<path d="M10.53 11.3571H9.92139V10.7485H10.53V11.3571ZM10.4271 10.8514H10.0242V11.2542H10.4271V10.8514Z" fill="#E42313"/>
<path fill-rule="evenodd" clip-rule="evenodd" d="M10.53 12.167H9.92139V12.7713H10.53V12.1713V12.167ZM10.4271 12.2656H10.0242V12.6727H10.4271V12.2656ZM10.6285 12.0641H11.2414V11.4556H10.6285V12.0641ZM11.1428 11.5584H10.7357V11.9613H11.1428V11.5584Z" fill="#E42313"/>
<path d="M12.0001 11.1343C12.4165 11.1343 12.8159 11.2994 13.1108 11.5934C13.4056 11.8875 13.5718 12.2864 13.573 12.7028C13.573 13.12 13.4072 13.5201 13.1123 13.815C12.8173 14.11 12.4173 14.2757 12.0001 14.2757C11.583 14.2757 11.1829 14.11 10.8879 13.815C10.593 13.5201 10.4272 13.12 10.4272 12.7028C10.4284 12.2864 10.5946 11.8875 10.8894 11.5934C11.1843 11.2994 11.5837 11.1343 12.0001 11.1343Z" fill="#E42313"/>
<path d="M11.5286 12.2958C11.5243 12.2829 11.52 12.2701 11.5243 12.2529L11.0957 12.3643C10.9072 12.4072 10.7272 12.4543 10.5429 12.5058C10.5267 12.6295 10.5267 12.7549 10.5429 12.8786C10.8857 12.7501 11.3229 12.5872 11.6529 12.4758C11.6205 12.4559 11.5924 12.4298 11.5703 12.3989C11.5482 12.3679 11.5325 12.3329 11.5243 12.2958H11.5286ZM11.3572 12.1929L11.3443 12.1801C11.316 12.1603 11.2923 12.1349 11.2745 12.1053C11.2568 12.0758 11.2455 12.0428 11.2415 12.0086V11.9915C11.0884 11.9771 10.9406 11.9288 10.8086 11.8501C10.6905 12.0127 10.6073 12.198 10.5643 12.3943L11.0786 12.2658L11.3615 12.1929H11.3572ZM11.7857 12.0001C11.6272 12.1715 11.6186 12.2486 11.6229 12.2743C11.6357 12.3258 11.6957 12.4243 11.82 12.4115C11.8415 12.3772 11.8715 12.3386 11.91 12.3043C12.18 12.0686 12.6515 11.7386 12.9172 11.5543C12.8028 11.4646 12.6757 11.3924 12.54 11.3401L12.3686 11.4815C12.1672 11.6443 11.9615 11.8115 11.79 11.9958L11.7857 12.0001ZM11.4257 11.7943C11.37 11.8715 11.34 11.9486 11.34 12.0001C11.3486 12.0429 11.3657 12.0729 11.4043 12.0986C11.4429 12.1286 11.4986 12.1415 11.5586 12.1372C11.5886 12.0772 11.6443 12.0086 11.7129 11.9272C11.8886 11.7343 12.0986 11.5672 12.3 11.4001L12.4286 11.2972C12.3 11.2543 12.1586 11.2372 12.0172 11.2329C11.8029 11.3786 11.5586 11.6101 11.4257 11.7901V11.7943ZM11.3443 11.7343C11.4557 11.5758 11.6443 11.3915 11.8329 11.2458C11.4472 11.2886 11.1043 11.4815 10.8686 11.7686C10.9757 11.8329 11.1257 11.8801 11.2586 11.8929C11.28 11.8329 11.3143 11.7772 11.3443 11.7343ZM12.7543 12.4758C13.0072 12.6986 13.2343 12.8743 13.44 12.9986C13.4706 12.8507 13.4778 12.6988 13.4615 12.5486L12.96 12.3429L12.7543 12.4758ZM12.5443 12.6086C12.7586 12.9515 12.9729 13.2001 13.1957 13.4615L13.23 13.5043C13.3115 13.3758 13.3757 13.2472 13.4143 13.0972C13.1915 12.9686 12.9429 12.7801 12.6643 12.5315L12.5443 12.6086ZM13.4443 12.4329C13.4222 12.3115 13.3848 12.1934 13.3329 12.0815L13.0586 12.2743L13.4443 12.4329ZM13.2857 11.9915C13.2086 11.8543 13.1143 11.7301 12.9943 11.6229C12.7372 11.8029 12.2486 12.1415 11.9786 12.3815C11.8672 12.4801 11.85 12.5829 11.88 12.6558H12.2657C12.48 12.5315 12.9386 12.2486 13.2857 11.9915ZM11.16 13.3072C11.01 13.3758 10.8515 13.4443 10.7615 13.4915C10.8643 13.6543 11.0015 13.7915 11.16 13.9029C11.31 13.7401 11.5415 13.4615 11.7172 13.2215C11.6392 13.2244 11.5629 13.1984 11.5029 13.1486L11.16 13.3072ZM11.2457 13.9586C11.4515 14.0872 11.6872 14.1601 11.9443 14.1686C11.9786 13.9458 12.0172 13.4829 12.0386 13.2258H11.8415C11.6615 13.4701 11.4129 13.7743 11.2415 13.9586H11.2457ZM12.6943 13.0072C12.6817 13.0601 12.6539 13.1082 12.6143 13.1456C12.5747 13.1829 12.525 13.2078 12.4715 13.2172C12.5272 13.3758 12.6429 13.7143 12.7457 13.9672C12.9086 13.8686 13.0543 13.7401 13.1743 13.5858L13.1186 13.5258C12.9815 13.3672 12.8357 13.2001 12.6943 13.0115V13.0072ZM12.0429 14.1686C12.2657 14.1643 12.4715 14.1086 12.6557 14.0143C12.54 13.7443 12.4157 13.3758 12.3686 13.2215H12.1372C12.1157 13.4958 12.0815 13.9372 12.0472 14.1686H12.0429ZM11.7172 12.6515H11.7729C11.7644 12.6164 11.763 12.58 11.7686 12.5443C11.4257 12.6558 10.9286 12.8443 10.5557 12.9815C10.5857 13.1315 10.6415 13.2729 10.71 13.4015L11.1172 13.2129L11.4429 13.0672C11.4214 13.0277 11.4096 12.9836 11.4086 12.9386C11.4086 12.7972 11.5157 12.6515 11.7172 12.6515Z" fill="#FFED00"/>
<path d="M11.5115 12.9387C11.5115 12.8487 11.5758 12.7544 11.7172 12.7544H12.3943C12.5358 12.7544 12.6 12.8487 12.6 12.9387C12.6 13.0287 12.5358 13.123 12.3943 13.123H11.7172C11.5758 13.123 11.5115 13.0287 11.5115 12.9387Z" fill="#FFED00"/>
</g>
<defs>
<clipPath id="clip0_31_11008">
<rect width="24" height="24" fill="white"/>
</clipPath>
</defs>
</svg>

<svg xmlns="http://www.w3.org/2000/svg" width="24" height="24" fill="none" viewBox="0 0 24 24"><g clip-path="url(#a)"><path fill="#F0F3FA" d="M0 0h24v24H0z"/><path fill="#FFED00" d="M12 19.286a7.286 7.286 0 1 0 0-14.572 7.286 7.286 0 0 0 0 14.572"/><path fill="#E42313" fill-rule="evenodd" d="M12 18.429A6.429 6.429 0 1 0 12 5.57a6.429 6.429 0 0 0 0 12.858m0 .428a6.857 6.857 0 1 0 0-13.714 6.857 6.857 0 0 0 0 13.714" clip-rule="evenodd"/><path fill="#E42313" fill-rule="evenodd" d="M16.127 9.321a2.4 2.4 0 0 1 .995.296l.02.017v1.834l-.08-.055a2.36 2.36 0 0 0-1.085-.287c-.073 0-.124-.043-.128-.112v-.454a2.5 2.5 0 0 0-.857-.184v2.498c0 1.916-1.86 3.219-2.966 3.827l-.026.013-.026-.013c-1.105-.608-2.965-1.911-2.965-3.827v-2.498c-.262.012-.643.077-.858.184v.454c-.004.069-.055.116-.128.116-.42 0-.922.167-1.084.283l-.082.055V9.634l.022-.017a2.4 2.4 0 0 1 .994-.3v-.309c.064-.312.771-.428 1.136-.437h5.983c.364.009 1.07.125 1.135.433zm-.103-.3c-.043-.201-.621-.338-1.033-.347v1.603c.27.009.815.086 1.033.274zM6.96 11.28V9.686c.283-.149.594-.238.913-.262v1.307c0 .112.056.163.103.206l.017.017a.2.2 0 0 1 .047.069h-.026a2.6 2.6 0 0 0-1.054.257m2.049-2.606v1.603c-.27.009-.81.086-1.033.274v-1.53c.043-.201.625-.338 1.033-.347m7.118.75c.399.034.772.172.917.262v1.594a2.6 2.6 0 0 0-1.084-.257.2.2 0 0 1 .047-.069l.022-.017c.043-.043.098-.094.098-.206zM8.04 10.86c-.043-.039-.069-.064-.064-.129 0-.025.017-.064.068-.107v.24-.004zm7.98-.154.009.025c0 .065-.03.09-.069.129l-.004.004v-.24c.034.03.056.06.064.082" clip-rule="evenodd"/><path fill="#FFED00" d="M14.889 8.674v4.2c0 1.847-1.8 3.12-2.89 3.725-1.088-.6-2.888-1.878-2.888-3.73v-4.2h5.778z"/><path fill="#E42313" d="M7.397 10.779v-.806h-.133v-.129h.275v.935zM8.59 9.673a.27.27 0 0 1-.309-.06.3.3 0 0 1-.086-.214.317.317 0 0 1 .33-.326q.135.001.219.086c.056.06.086.133.086.227a.6.6 0 0 1-.116.313l-.261.385-.116-.055zm.094-.287a.2.2 0 0 0-.043-.137.15.15 0 0 0-.12-.052.17.17 0 0 0-.128.052.2.2 0 0 0-.048.137q-.001.09.043.141a.2.2 0 0 0 .129.047q.075 0 .124-.051a.2.2 0 0 0 .043-.137m7.11.518v.125h-.621l.338-.425a.6.6 0 0 0 .09-.137.3.3 0 0 0 .03-.111c0-.043-.013-.086-.043-.112a.15.15 0 0 0-.107-.038.13.13 0 0 0-.103.043.16.16 0 0 0-.043.103h-.141q0-.13.081-.202a.3.3 0 0 1 .219-.077q.129-.001.206.069a.25.25 0 0 1 .077.192.35.35 0 0 1-.043.172c-.077.146-.189.274-.292.398zm.536.643c.043.077.107.12.192.12.12 0 .198-.085.198-.214s-.086-.206-.206-.206a.22.22 0 0 0-.176.086l-.055-.017.115-.48h.429v.128h-.317l-.052.197a.3.3 0 0 1 .116-.02q.128.001.206.085a.3.3 0 0 1 .085.223.35.35 0 0 1-.098.257.34.34 0 0 1-.253.094.4.4 0 0 1-.163-.034.3.3 0 0 1-.116-.107zm-1.59 2.327h-2.687v3.583l.077-.043c1.748-1.045 2.614-2.185 2.657-3.488l.004-.052zm-5.525 0h2.735v3.583l-.078-.047c-1.748-1.041-2.614-2.181-2.657-3.484zm2.636 3.403v-3.3H9.322c.055 1.222.887 2.306 2.528 3.3M9.214 9.94V8.773h5.572v1.166z"/><path fill="#FFED00" d="M10.11 9.467h-.322v.124h.138v.133l-.065.009h-.068q-.104.001-.137-.043c-.018-.017-.043-.064-.043-.18 0-.124.021-.171.038-.189.022-.025.065-.042.129-.042.047 0 .086.012.107.03q.03.02.03.06v.025h.189v-.03a.17.17 0 0 0-.09-.15.45.45 0 0 0-.232-.051.6.6 0 0 0-.167.021.3.3 0 0 0-.116.06.23.23 0 0 0-.055.099.5.5 0 0 0-.018.154q.001.129.022.193a.2.2 0 0 0 .081.107.3.3 0 0 0 .107.043.6.6 0 0 0 .155.017l.128-.008.189-.022zm.741-.244a.3.3 0 0 0-.107-.043.669.669 0 0 0-.313.004.26.26 0 0 0-.115.069.2.2 0 0 0-.043.094 1 1 0 0 0-.013.163c0 .086.004.15.021.189a.17.17 0 0 0 .073.098.3.3 0 0 0 .107.043.634.634 0 0 0 .309-.004.3.3 0 0 0 .116-.069.2.2 0 0 0 .043-.094.5.5 0 0 0 .017-.154.7.7 0 0 0-.022-.193.2.2 0 0 0-.073-.103m-.253.064c.065 0 .103.013.129.034.013.018.03.065.03.189 0 .12-.017.171-.034.189q-.034.033-.125.034a.2.2 0 0 1-.085-.013.1.1 0 0 1-.043-.034.1.1 0 0 1-.017-.052.5.5 0 0 1-.009-.124c0-.086.004-.129.009-.141a.1.1 0 0 1 .03-.048.1.1 0 0 1 .043-.025zM10.843 9h-.163v.141h.159V9zm-.313 0h-.163v.141h.163zm.531.171v.133h.386l-.386.42v.133h.613v-.146h-.385l.385-.411v-.129h-.617zm.725 0V9.3h.227v.557h.184V9.3h.232v-.129zm.771 0v.686h.549v-.141h-.365V9.56h.356v-.12h-.356v-.137h.365v-.128h-.549zm1.26.043a.5.5 0 0 0-.236-.043h-.295v.686h.184V9.58h.141a.4.4 0 0 0 .21-.048.18.18 0 0 0 .073-.154c0-.073-.026-.133-.077-.163m-.343.086h.107c.065 0 .095.013.107.021.013.009.022.03.022.048q0 .037-.026.055c-.017.009-.03.013-.107.017h-.107v-.137zm1.097.004v-.128h-.548v.681h.548v-.141h-.364V9.56h.356v-.12h-.356v-.137z"/><path fill="#E42313" fill-rule="evenodd" d="M14.786 10.042h-2.734v2.73h2.738v-2.73zm-.099.098h-2.533v2.529h2.533z" clip-rule="evenodd"/><path fill="#E42313" d="M9.214 12.772h.605v-.6h-.605v.604zm.707-.708h.61v-.608h-.61zm-.102-.707h-.605v-.608h.605zm.81-.608h.613v.608h-.613zm-.707-.103h.608v-.605h-.608zm1.418 0h.609v-.605h-.609zm-2.126 0h.605v-.605h-.605zm.506-.099h-.407v-.407h.407z"/><path fill="#E42313" fill-rule="evenodd" d="M11.242 10.646h-.613v-.605h.608v.605zm-.103-.099h-.407v-.407h.41v.407zm.81.202h-.609v.608h.609zm-.099.102h-.407v.403h.407zm-2.636 1.213h.605v-.608h-.605zm.506-.505h-.407v.402h.407z" clip-rule="evenodd"/><path fill="#E42313" d="M10.53 11.357h-.609v-.608h.609zm-.103-.506h-.403v.403h.403z"/><path fill="#E42313" fill-rule="evenodd" d="M10.53 12.167h-.609v.604h.609v-.604m-.103.099h-.403v.407h.403zm.202-.202h.612v-.608h-.612zm.514-.506h-.407v.403h.407z" clip-rule="evenodd"/><path fill="#E42313" d="M12 11.134a1.573 1.573 0 0 1 1.573 1.569 1.573 1.573 0 0 1-3.146 0A1.573 1.573 0 0 1 12 11.134"/><path fill="#FFED00" d="M11.529 12.296q-.01-.019-.005-.043l-.428.111c-.189.043-.369.09-.553.142q-.024.186 0 .373c.343-.129.78-.292 1.11-.403a.28.28 0 0 1-.129-.18zm-.172-.103-.013-.013a.25.25 0 0 1-.102-.171v-.018a1 1 0 0 1-.433-.14 1.5 1.5 0 0 0-.245.543l.515-.128.282-.073zm.429-.193c-.159.172-.167.249-.163.274.013.052.073.15.197.138a.5.5 0 0 1 .09-.108c.27-.235.742-.565 1.007-.75a1.5 1.5 0 0 0-.377-.214l-.171.142c-.202.162-.408.33-.579.514zm-.36-.206a.4.4 0 0 0-.086.206.14.14 0 0 0 .064.099c.039.03.095.043.155.038.03-.06.085-.128.154-.21.176-.193.386-.36.587-.527l.129-.103a1.5 1.5 0 0 0-.412-.064 2.7 2.7 0 0 0-.591.557zm-.082-.06c.112-.158.3-.342.489-.488a1.46 1.46 0 0 0-.964.523 1 1 0 0 0 .39.124.7.7 0 0 1 .085-.159m1.41.742q.378.335.686.523.046-.224.021-.45l-.501-.206zm-.21.133c.215.342.429.591.652.852l.034.043c.082-.128.146-.257.184-.407a4.7 4.7 0 0 1-.75-.566zm.9-.176a1.5 1.5 0 0 0-.111-.351l-.274.192zm-.158-.441a1.4 1.4 0 0 0-.292-.37c-.257.18-.745.52-1.015.76-.112.098-.129.2-.099.274h.386c.214-.125.673-.407 1.02-.665m-2.126 1.315c-.15.069-.309.137-.399.184.103.163.24.3.399.412.15-.163.381-.442.557-.681a.32.32 0 0 1-.214-.073zm.086.652c.205.128.441.201.698.21.035-.223.073-.686.095-.943h-.197c-.18.244-.43.548-.6.733zm1.448-.952a.28.28 0 0 1-.223.21c.056.159.172.497.275.75q.246-.149.428-.381l-.055-.06c-.137-.159-.283-.326-.425-.514zm-.651 1.162c.223-.005.429-.06.613-.155a9 9 0 0 1-.287-.792h-.232c-.021.274-.056.715-.09.947zm-.326-1.517h.056a.3.3 0 0 1-.004-.108c-.343.112-.84.3-1.213.438.03.15.086.29.154.42l.407-.19.326-.145a.3.3 0 0 1-.034-.128c0-.142.107-.287.308-.287"/><path fill="#FFED00" d="M11.512 12.939c0-.09.064-.185.205-.185h.677c.142 0 .206.095.206.185s-.064.184-.206.184h-.677c-.141 0-.206-.094-.206-.184"/></g><defs><clipPath id="a"><path fill="#fff" d="M0 0h24v24H0z"/></clipPath></defs></svg>
